images/content/regular-convex-uniform/octahedron.svg

<?xml version="1.0" encoding="UTF-8"?>
<svg xmlns="http://www.w3.org/2000/svg" xmlns:xlink="http://www.w3.org/1999/xlink" width="160pt" height="150pt" viewBox="0 0 160 150" version="1.2">
<g id="surface1">
<path style=" stroke:none;fill-rule:nonzero;fill:rgb(75.193787%,61.326599%,70.506287%);fill-opacity:1;" d="M 111.714844 39.808594 L 75.402344 141.878906 L 5.453125 57.035156 "/>
<path style="fill:none;stroke-width:5.5515;stroke-linecap:round;stroke-linejoin:round;stroke:rgb(0%,0%,0%);stroke-opacity:1;stroke-miterlimit:10;" d="M 1117.148438 1101.914062 L 754.023438 81.210938 L 54.53125 929.648438 Z M 1117.148438 1101.914062 " transform="matrix(0.1,0,0,-0.1,0,150)"/>
<path style=" stroke:none;fill-rule:nonzero;fill:rgb(40.600586%,41.601562%,75.78125%);fill-opacity:1;" d="M 153.347656 104.386719 L 75.402344 141.878906 L 111.714844 39.808594 "/>
<path style="fill:none;stroke-width:5.5515;stroke-linecap:round;stroke-linejoin:round;stroke:rgb(0%,0%,0%);stroke-opacity:1;stroke-miterlimit:10;" d="M 1533.476562 456.132812 L 754.023438 81.210938 L 1117.148438 1101.914062 Z M 1533.476562 456.132812 " transform="matrix(0.1,0,0,-0.1,0,150)"/>
<path style=" stroke:none;fill-rule:nonzero;fill:rgb(66.796875%,20.506287%,14.697266%);fill-opacity:1;" d="M 75.402344 5.65625 L 111.714844 39.808594 L 5.453125 57.035156 "/>
<path style="fill:none;stroke-width:5.5515;stroke-linecap:round;stroke-linejoin:round;stroke:rgb(0%,0%,0%);stroke-opacity:1;stroke-miterlimit:10;" d="M 754.023438 1443.4375 L 1117.148438 1101.914062 L 54.53125 929.648438 Z M 754.023438 1443.4375 " transform="matrix(0.1,0,0,-0.1,0,150)"/>
<path style=" stroke:none;fill-rule:nonzero;fill:rgb(71.484375%,92.576599%,58.984375%);fill-opacity:1;" d="M 75.402344 5.65625 L 153.347656 104.386719 L 111.714844 39.808594 "/>
<path style="fill:none;stroke-width:5.5515;stroke-linecap:round;stroke-linejoin:round;stroke:rgb(0%,0%,0%);stroke-opacity:1;stroke-miterlimit:10;" d="M 754.023438 1443.4375 L 1533.476562 456.132812 L 1117.148438 1101.914062 Z M 754.023438 1443.4375 " transform="matrix(0.1,0,0,-0.1,0,150)"/>
<path style=" stroke:none;fill-rule:nonzero;fill:rgb(88.084412%,99.21875%,77.929688%);fill-opacity:1;" d="M 75.402344 141.878906 L 31.035156 127.847656 L 5.453125 57.035156 "/>
<path style="fill:none;stroke-width:5.5515;stroke-linecap:round;stroke-linejoin:round;stroke:rgb(0%,0%,0%);stroke-opacity:1;stroke-miterlimit:10;" d="M 754.023438 81.210938 L 310.351562 221.523438 L 54.53125 929.648438 Z M 754.023438 81.210938 " transform="matrix(0.1,0,0,-0.1,0,150)"/>
<path style=" stroke:none;fill-rule:nonzero;fill:rgb(55.859375%,0.498962%,0%);fill-opacity:1;" d="M 153.347656 104.386719 L 31.035156 127.847656 L 75.402344 141.878906 "/>
<path style="fill:none;stroke-width:5.5515;stroke-linecap:round;stroke-linejoin:round;stroke:rgb(0%,0%,0%);stroke-opacity:1;stroke-miterlimit:10;" d="M 1533.476562 456.132812 L 310.351562 221.523438 L 754.023438 81.210938 Z M 1533.476562 456.132812 " transform="matrix(0.1,0,0,-0.1,0,150)"/>
<path style=" stroke:none;fill-rule:nonzero;fill:rgb(29.80957%,35.301208%,75.193787%);fill-opacity:1;" d="M 75.402344 5.65625 L 5.453125 57.035156 L 31.035156 127.847656 "/>
<path style="fill:none;stroke-width:5.5515;stroke-linecap:round;stroke-linejoin:round;stroke:rgb(0%,0%,0%);stroke-opacity:1;stroke-miterlimit:10;" d="M 754.023438 1443.4375 L 54.53125 929.648438 L 310.351562 221.523438 Z M 754.023438 1443.4375 " transform="matrix(0.1,0,0,-0.1,0,150)"/>
<path style=" stroke:none;fill-rule:nonzero;fill:rgb(75.976562%,62.109375%,70.506287%);fill-opacity:1;" d="M 75.402344 5.65625 L 31.035156 127.847656 L 153.347656 104.386719 "/>
<path style="fill:none;stroke-width:5.5515;stroke-linecap:round;stroke-linejoin:round;stroke:rgb(0%,0%,0%);stroke-opacity:1;stroke-miterlimit:10;" d="M 754.023438 1443.4375 L 310.351562 221.523438 L 1533.476562 456.132812 Z M 754.023438 1443.4375 " transform="matrix(0.1,0,0,-0.1,0,150)"/>
</g>
</svg>

<svg xmlns="http://www.w3.org/2000/svg" width="160pt" height="200" viewBox="0 0 160 150" version="1.2"><path style="stroke:none;fill-rule:nonzero;fill:#c09cb4;fill-opacity:1" d="m111.715 39.809-36.313 102.07L5.453 57.035"/><path style="fill:none;stroke-width:5.5515;stroke-linecap:round;stroke-linejoin:round;stroke:#000;stroke-opacity:1;stroke-miterlimit:10" d="M1117.148 1101.914 754.023 81.211 54.531 929.648Zm0 0" transform="matrix(.1 0 0 -.1 0 150)"/><path style="stroke:none;fill-rule:nonzero;fill:#686ac1;fill-opacity:1" d="m153.348 104.387-77.946 37.492 36.313-102.07"/><path style="fill:none;stroke-width:5.5515;stroke-linecap:round;stroke-linejoin:round;stroke:#000;stroke-opacity:1;stroke-miterlimit:10" d="M1533.477 456.133 754.023 81.21l363.125 1020.703Zm0 0" transform="matrix(.1 0 0 -.1 0 150)"/><path style="stroke:none;fill-rule:nonzero;fill:#aa3425;fill-opacity:1" d="m75.402 5.656 36.313 34.153L5.453 57.035"/><path style="fill:none;stroke-width:5.5515;stroke-linecap:round;stroke-linejoin:round;stroke:#000;stroke-opacity:1;stroke-miterlimit:10" d="m754.023 1443.438 363.125-341.524L54.531 929.648Zm0 0" transform="matrix(.1 0 0 -.1 0 150)"/><path style="stroke:none;fill-rule:nonzero;fill:#b6ec96;fill-opacity:1" d="m75.402 5.656 77.946 98.73-41.633-64.577"/><path style="fill:none;stroke-width:5.5515;stroke-linecap:round;stroke-linejoin:round;stroke:#000;stroke-opacity:1;stroke-miterlimit:10" d="m754.023 1443.438 779.454-987.305-416.329 645.781Zm0 0" transform="matrix(.1 0 0 -.1 0 150)"/><path style="stroke:none;fill-rule:nonzero;fill:#e1fdc7;fill-opacity:1" d="m75.402 141.879-44.367-14.031L5.453 57.035"/><path style="fill:none;stroke-width:5.5515;stroke-linecap:round;stroke-linejoin:round;stroke:#000;stroke-opacity:1;stroke-miterlimit:10" d="M754.023 81.21 310.352 221.524 54.532 929.648Zm0 0" transform="matrix(.1 0 0 -.1 0 150)"/><path style="stroke:none;fill-rule:nonzero;fill:#8e0100;fill-opacity:1" d="m153.348 104.387-122.313 23.46 44.367 14.032"/><path style="fill:none;stroke-width:5.5515;stroke-linecap:round;stroke-linejoin:round;stroke:#000;stroke-opacity:1;stroke-miterlimit:10" d="M1533.477 456.133 310.352 221.523 754.023 81.211Zm0 0" transform="matrix(.1 0 0 -.1 0 150)"/><path style="stroke:none;fill-rule:nonzero;fill:#4c5ac0;fill-opacity:1" d="M75.402 5.656 5.453 57.036l25.582 70.812"/><path style="fill:none;stroke-width:5.5515;stroke-linecap:round;stroke-linejoin:round;stroke:#000;stroke-opacity:1;stroke-miterlimit:10" d="M754.023 1443.438 54.531 929.648l255.82-708.125Zm0 0" transform="matrix(.1 0 0 -.1 0 150)"/><path style="stroke:none;fill-rule:nonzero;fill:#c29eb4;fill-opacity:1" d="M75.402 5.656 31.035 127.848l122.313-23.461"/><path style="fill:none;stroke-width:5.5515;stroke-linecap:round;stroke-linejoin:round;stroke:#000;stroke-opacity:1;stroke-miterlimit:10" d="M754.023 1443.438 310.352 221.523l1223.125 234.61Zm0 0" transform="matrix(.1 0 0 -.1 0 150)"/></svg>
